src/symbolic/status/notification-disabled-symbolic.svg

<?xml version="1.0" encoding="UTF-8" standalone="no"?>
<svg
   xmlns:dc="http://purl.org/dc/elements/1.1/"
   xmlns:cc="http://creativecommons.org/ns#"
   xmlns:rdf="http://www.w3.org/1999/02/22-rdf-syntax-ns#"
   xmlns:svg="http://www.w3.org/2000/svg"
   xmlns="http://www.w3.org/2000/svg"
   xmlns:sodipodi="http://sodipodi.sourceforge.net/DTD/sodipodi-0.dtd"
   xmlns:inkscape="http://www.inkscape.org/namespaces/inkscape"
   height="16"
   width="16"
   version="1.1"
   id="svg6"
   sodipodi:docname="notification-disabled-symbolic.svg"
   inkscape:version="0.92.4 (5da689c313, 2019-01-14)">
  <metadata
     id="metadata12">
    <rdf:RDF>
      <cc:Work
         rdf:about="">
        <dc:format>image/svg+xml</dc:format>
        <dc:type
           rdf:resource="http://purl.org/dc/dcmitype/StillImage" />
      </cc:Work>
    </rdf:RDF>
  </metadata>
  <defs
     id="defs10" />
  <sodipodi:namedview
     pagecolor="#ffffff"
     bordercolor="#666666"
     borderopacity="1"
     objecttolerance="10"
     gridtolerance="10"
     guidetolerance="10"
     inkscape:pageopacity="0"
     inkscape:pageshadow="2"
     inkscape:window-width="1366"
     inkscape:window-height="708"
     id="namedview8"
     showgrid="false"
     inkscape:zoom="29.5"
     inkscape:cx="-5.6779955"
     inkscape:cy="7.3839142"
     inkscape:window-x="0"
     inkscape:window-y="30"
     inkscape:window-maximized="1"
     inkscape:current-layer="svg6" />
  <path
     inkscape:connector-curvature="0"
     style="display:inline;opacity:1;fill:#bebebe;fill-opacity:1;stroke:none;stroke-width:3;stroke-linecap:round;stroke-miterlimit:4;stroke-dasharray:none;stroke-opacity:1;enable-background:new"
     d="M 8,1 C 7.44772,1 7,1.44772 7,2 7,2.0333 7.00186,2.066509 7.00586,2.099609 4.7156788,2.5584298 3.00008,4.57084 3,7 v 4.5 l -2,2 V 14 h 2 10 2 v -0.5 l -2,-2 V 9 7 C 13.00017,4.57084 11.284461,2.5584394 8.9941406,2.0996094 8.9981406,2.0665094 8.99971,2.0333 9,2 9,1.44772 8.55228,1 8,1 Z m 0,2 a 4.0000086,4.0000086 0 0 1 4,4 v 3 1 0.921875 L 13,13 H 12 4 3 L 4,11.921875 V 11 10 7 A 4.0000086,4.0000086 0 0 1 8,3 Z M 8,4 A 3,3 0 0 0 5,7 v 5 h 6 V 7 A 3,3 0 0 0 8,4 Z M 6.2695312,15 C 6.6265113,15.61831 7.28603,15.99944 8,16 8.71327,15.99874 9.3718856,15.61771 9.7285156,15 Z"
     id="path5938" />
</svg>

<svg xmlns="http://www.w3.org/2000/svg" height="16" width="16"><path d="M8 1a1 1 0 0 0-.994 1.1A4.988 4.988 0 0 0 3 7v4.5l-2 2v.5h14v-.5l-2-2V7a4.987 4.987 0 0 0-4.006-4.9A1 1 0 0 0 8 1zm0 2a4 4 0 0 1 4 4v4.922L13 13H3l1-1.078V7a4 4 0 0 1 4-4zm0 1a3 3 0 0 0-3 3v5h6V7a3 3 0 0 0-3-3zM6.27 15A2 2 0 0 0 8 16a2 2 0 0 0 1.729-1z" fill="#5d656b" stroke-width="3" stroke-linecap="round"/></svg>
